X:1
T: Invereshie
C:William Marshall
R:Strathspey
Q: 128
K:Bb
M:4/4
L:1/16
|:D2|B,2F2 D2F2 B2F2 B2d2|fd3 c3B G4 G2B2|B,2F2 D2F2 B2F2 B2d2|fd3 B3d f4 e2d2|
e2g2 c2e2 d2f2 B2d2|c3d edcB G4 G2B2|B,2F2 D2F2 B2F2 B2d2|fd3 B3d B4 B2DE|
F2B2 D2B2 F2B2 D2B2|G3B GFED C4 C2DE|F2B2 D2B2 F2B2 D2g2|fd3 B3d f4 e2d2|
e2g2 c2e2 d2f2 B2d2|c3d edcB G4 G2B2|B,2F2 D2F2 B2F2 B2d2|fd3 c3d B4 B2:|
